images/icons/icon-2.svg

<svg width="36" height="36" viewBox="0 0 36 36" fill="none" xmlns="http://www.w3.org/2000/svg">
<path d="M20.813 10.6845C20.4249 10.6845 20.1101 10.9995 20.1101 11.3876C20.1101 11.7754 20.4249 12.0905 20.813 12.0905C21.2011 12.0905 21.5158 11.7754 21.5158 11.3876C21.5158 10.9995 21.2011 10.6845 20.813 10.6845Z" fill="#332208"/>
<path d="M16.549 24.4171C16.8234 24.1422 16.8234 23.6973 16.549 23.4223C16.2743 23.1482 15.8294 23.1482 15.5545 23.4223C15.2803 23.6973 15.2803 24.1422 15.5545 24.4171C15.8294 24.6912 16.2743 24.6912 16.549 24.4171Z" fill="#332208"/>
<path d="M8.09911 35.7921C8.37165 36.0668 8.81537 36.0698 9.09148 35.7979L12.5005 32.4405C13.0797 31.8615 13.2558 31.0043 13.0011 30.2591L13.7344 29.5522C14.1292 29.1709 14.649 28.9608 15.1985 28.9608H24.5461C26.2045 28.9608 27.7719 28.3242 28.9601 27.1681C29.009 27.1206 28.589 27.6153 35.3372 19.5524C36.3381 18.3686 36.1884 16.591 35.0031 15.5893C33.8253 14.597 32.0609 14.7395 31.0573 15.903L26.9081 20.1663C26.3841 19.5216 25.5852 19.1198 24.7219 19.1198H16.881C15.7653 18.6532 14.5814 18.4169 13.3599 18.4169C9.97506 18.4169 7.01799 19.9792 5.4308 22.9115C4.76234 22.7848 4.05735 22.987 3.55017 23.494L0.205166 26.8479C-0.06793 27.1217 -0.0684794 27.5647 0.204067 27.8391L8.09911 35.7921ZM13.3596 19.8227C14.4366 19.8227 15.4779 20.0394 16.4552 20.4667C16.5442 20.5057 16.6401 20.5258 16.7371 20.5258H24.7219C25.4844 20.5258 26.1284 21.1473 26.1284 21.9315C26.1284 22.7068 25.4975 23.3375 24.7219 23.3375H18.985C18.5968 23.3375 18.2819 23.6522 18.2819 24.0403C18.2819 24.4287 18.5968 24.7432 18.985 24.7432H24.7219C26.2729 24.7432 27.5345 23.4819 27.5345 21.9315C27.5345 21.8079 27.5257 21.6854 27.5098 21.564C31.5235 17.4394 32.0895 16.8599 32.1137 16.8311C32.6148 16.2397 33.5044 16.1647 34.0962 16.6635C34.6886 17.1642 34.7636 18.053 34.2611 18.6477L27.9543 26.1848C27.0334 27.0687 25.8242 27.5551 24.5461 27.5551H15.1985C14.2825 27.5551 13.4154 27.9053 12.7577 28.5406L12.1601 29.1171L6.65148 23.6105C7.93893 21.1959 10.3548 19.8227 13.3596 19.8227ZM4.5453 24.4875C4.77718 24.2556 5.13325 24.2139 5.41596 24.3886C5.52338 24.4539 11.5375 30.4811 11.5746 30.5308C11.7804 30.8079 11.751 31.2015 11.5101 31.4426L8.60381 34.3049L1.69483 27.3453L4.5453 24.4875Z" fill="#332208"/>
<path d="M10.9691 14.9022H27.8447C29.008 14.9022 29.9542 13.9562 29.9542 12.7933C29.9542 11.0215 29.9542 3.38297 29.9542 2.10883C29.9542 0.945924 29.008 0 27.8447 0H10.9691C9.80584 0 8.85962 0.945924 8.85962 2.10883V12.7933C8.85962 13.9562 9.80584 14.9022 10.9691 14.9022ZM28.5478 5.62336H10.266V4.21766H28.5478V5.62336ZM27.8447 13.4964H10.9691C10.5814 13.4964 10.266 13.1809 10.266 12.7933V7.02934H28.5478V12.7933C28.5478 13.1809 28.2324 13.4964 27.8447 13.4964ZM10.9691 1.40598H27.8447C28.2324 1.40598 28.5478 1.72129 28.5478 2.10883V2.81168H10.266V2.10883C10.266 1.72129 10.5814 1.40598 10.9691 1.40598Z" fill="#332208"/>
<path d="M26.4382 10.6845H23.6257C23.2375 10.6845 22.9226 10.9992 22.9226 11.3876C22.9226 11.7757 23.2375 12.0905 23.6257 12.0905H26.4382C26.8267 12.0905 27.1416 11.7757 27.1416 11.3876C27.1416 10.9992 26.8267 10.6845 26.4382 10.6845Z" fill="#332208"/>
</svg>

<svg width="36" height="36" fill="none" xmlns="http://www.w3.org/2000/svg"><path d="M20.813 10.684a.703.703 0 100 1.407.703.703 0 000-1.406zm-4.264 13.733a.704.704 0 10-.996-.995.704.704 0 00.996.995z" fill="#332208"/><path d="M8.1 35.792a.703.703 0 00.991.006l3.41-3.358a2.121 2.121 0 00.5-2.18l.733-.708a2.097 2.097 0 011.464-.591h9.348a6.296 6.296 0 004.414-1.793c.049-.047-.371.447 6.377-7.616a2.815 2.815 0 00-.334-3.963 2.82 2.82 0 00-3.946.314l-4.149 4.263a2.826 2.826 0 00-2.186-1.046H16.88a9.075 9.075 0 00-3.521-.703c-3.385 0-6.342 1.562-7.93 4.494a2.1 2.1 0 00-1.88.583L.205 26.848a.703.703 0 000 .991l7.894 7.953zm5.26-15.97a7.68 7.68 0 013.095.645c.09.039.185.059.282.059h7.985a1.41 1.41 0 011.406 1.405c0 .776-.63 1.406-1.406 1.406h-5.737a.703.703 0 100 1.406h5.737a2.815 2.815 0 002.788-3.179c4.013-4.125 4.58-4.704 4.604-4.733a1.411 1.411 0 011.982-.168c.593.501.668 1.39.165 1.985l-6.307 7.537a4.897 4.897 0 01-3.408 1.37h-9.348c-.915 0-1.783.35-2.44.986l-.598.576-5.509-5.507c1.288-2.414 3.704-3.787 6.709-3.787zm-8.815 4.666a.701.701 0 01.871-.1c.107.066 6.121 6.093 6.159 6.143a.706.706 0 01-.065.912l-2.906 2.862-6.91-6.96 2.851-2.857zm6.425-9.586h16.875c1.163 0 2.11-.946 2.11-2.109V2.11A2.111 2.111 0 0027.844 0H10.969A2.111 2.111 0 008.86 2.109v10.684c0 1.163.947 2.11 2.11 2.11zm17.578-9.279H10.266V4.218h18.282v1.405zm-.703 7.873H10.969a.704.704 0 01-.703-.703V7.03h18.282v5.764a.704.704 0 01-.703.703zM10.969 1.406h16.876c.387 0 .703.315.703.703v.703H10.266v-.703c0-.388.315-.703.703-.703z" fill="#332208"/><path d="M26.438 10.684h-2.812a.703.703 0 000 1.407h2.812a.703.703 0 100-1.406z" fill="#332208"/></svg>
